src/assets/icons/icon-menu-statistics.svg

<svg width="21" height="21" viewBox="0 0 21 21" fill="none" xmlns="http://www.w3.org/2000/svg">
<path fill-rule="evenodd" clip-rule="evenodd" d="M12.897 0.8421C13.311 0.8421 13.647 1.1781 13.647 1.5921C13.647 2.0061 13.311 2.3421 12.897 2.3421H5.629C3.121 2.3421 1.5 4.0661 1.5 6.7361V14.8181C1.5 17.5231 3.082 19.2031 5.629 19.2031H14.233C16.741 19.2031 18.362 17.4821 18.362 14.8181V7.7791C18.362 7.3651 18.698 7.0291 19.112 7.0291C19.526 7.0291 19.862 7.3651 19.862 7.7791V14.8181C19.862 18.3381 17.6 20.7031 14.233 20.7031H5.629C2.262 20.7031 0 18.3381 0 14.8181V6.7361C0 3.2111 2.262 0.8421 5.629 0.8421H12.897ZM15.0124 7.6719C15.3404 7.9259 15.4004 8.3969 15.1464 8.7239L12.2164 12.5039C12.0944 12.6619 11.9144 12.7649 11.7164 12.7889C11.5164 12.8159 11.3184 12.7579 11.1604 12.6349L8.3424 10.4209L5.8114 13.7099C5.6634 13.9019 5.4414 14.0029 5.2164 14.0029C5.0564 14.0029 4.8954 13.9519 4.7594 13.8479C4.4314 13.5949 4.3694 13.1239 4.6224 12.7959L7.6154 8.9059C7.7374 8.7469 7.9184 8.6439 8.1164 8.6189C8.3184 8.5929 8.5164 8.6489 8.6734 8.7739L11.4934 10.9889L13.9604 7.8059C14.2144 7.4769 14.6844 7.4159 15.0124 7.6719ZM17.9674 0C19.4414 0 20.6394 1.198 20.6394 2.672C20.6394 4.146 19.4414 5.345 17.9674 5.345C16.4944 5.345 15.2954 4.146 15.2954 2.672C15.2954 1.198 16.4944 0 17.9674 0ZM17.9674 1.5C17.3214 1.5 16.7954 2.025 16.7954 2.672C16.7954 3.318 17.3214 3.845 17.9674 3.845C18.6134 3.845 19.1394 3.318 19.1394 2.672C19.1394 2.025 18.6134 1.5 17.9674 1.5Z" fill="url(#paint0_linear_7998_479)"/>
<defs>
<linearGradient id="paint0_linear_7998_479" x1="0" y1="10.3516" x2="20.6394" y2="10.3516" gradientUnits="userSpaceOnUse">
<stop stop-color="#02AAB0"/>
<stop offset="1" stop-color="#00CDAC"/>
</linearGradient>
</defs>
</svg>

<svg xmlns="http://www.w3.org/2000/svg" fill="none" viewBox="0 0 21 21"><path fill="url(#a)" fill-rule="evenodd" d="M12.897.842a.75.75 0 0 1 0 1.5H5.629C3.121 2.342 1.5 4.066 1.5 6.736v8.082c0 2.705 1.582 4.385 4.129 4.385h8.604c2.508 0 4.129-1.72 4.129-4.385V7.78a.75.75 0 0 1 1.5 0v7.04c0 3.52-2.262 5.884-5.629 5.884H5.629C2.262 20.703 0 18.338 0 14.818V6.736C0 3.211 2.262.842 5.629.842h7.268Zm2.115 6.83a.75.75 0 0 1 .134 1.052l-2.93 3.78a.746.746 0 0 1-.5.285.741.741 0 0 1-.556-.154L8.342 10.42l-2.53 3.289a.75.75 0 1 1-1.19-.914l2.993-3.89a.75.75 0 0 1 1.058-.132l2.82 2.215 2.467-3.183a.746.746 0 0 1 1.052-.134ZM17.967 0a2.674 2.674 0 0 1 2.672 2.672 2.675 2.675 0 0 1-2.672 2.673 2.676 2.676 0 0 1-2.672-2.673A2.675 2.675 0 0 1 17.967 0Zm0 1.5a1.173 1.173 0 0 0 0 2.345 1.173 1.173 0 0 0 0-2.345Z" clip-rule="evenodd"/><defs><linearGradient id="a" x1="0" x2="20.639" y1="10.352" y2="10.352" gradientUnits="userSpaceOnUse"><stop stop-color="#02AAB0"/><stop offset="1" stop-color="#00CDAC"/></linearGradient></defs></svg>
